X:1
T:Ninfe vezzose
T:Ninfe vezzose
T:Giovanni Ghizzolo
C:Giovanni Ghizzolo
%%score [ 1 2 ] { 3 | 4 }
L:1/8
Q:1/4=120
M:4/4
K:F
V:1 treble nm="Soprano" snm="S"
V:2 bass nm="Bass" snm="B"
V:3 treble nm="MusicXML Part"
V:4 bass 
V:1
"^Source: Madrigali et Arie---Libro secondo---Venetia---A.Raverij---1609.\nEditor: André Vierendeels (07/12/09)\nContinuo:" z2 c2 F2 G2 |: %1
w: Nin- fe vez-|
w: Di- te- li|
w: Di- te- li'an-|
w: Di- te- li|
 A4 A2"^ARIA" c2 | B2 G2 A4 | A2 A2 B2 c2 | d4 d2 d2 | d2 ^c2 d4 | d2 d2 c2 B2 | A4 A2 B2 | %8
w: zo- se va-|ghe'a- mo- ro-|so ch'in fres- che|val- li tra|bei cris- tal-|li d'A- mor can-|ta- te e'l|
w: ch'io per- do|il cor mi-|o poi che si|mo- re in|fie- ro'ar- do-|re sen- za con-|for- to strac-|
w: co- ra che|qui tal' ho-|ra fer e'in- fi-|ni- te ho'in-|te- ne- ri-|te co'l mio gran|pian- to a-|
w: ch'og- gi fra|ques- ti pog-|gi non v'e pas-|to- re che|nel suo'a- mo-|re pie- ta non|tro- vi- mer-|
 G3 G F4 |1 F2 c2 F2 G2 :|2 F2 A2 B2 G2 |: A4 A2 c2 | c2 =B2 c4 | c2 G2 G2 ^F2 | G4 G2 F2 | %15
w: crin or- na-|te. Nin- fe vez-|te. S'in com- pa-|gni- a vien|Fil- li mi-|a di- reh ho-|mai gli'as- pri|
w: cia- to'a tor-|to Di- te- li|to. Nel mio gran|fo- co ra-|len- ta'un po-|co poi ch'a fol|gio- ia ch'io|
w: ma- ro tan-|to. Di- te- li'an-|to. E ques- ti|lu- mi su|l'al- ti sin-|mi sen- za'ha- ver|pa- ce da|
w: ce non pro-|vi Di- te- li|vi. Sol- io mes-|chi- no per|mio des- ti-|no tro- no bel-|ta de sen-|
 F2 E2 F4 |1 F2 A2 B2 G2 :|2 F2 c2 c4- || c2 =Bc G4 | F8 |] %20
w: mie- i gua-|i. S'in com- pa-|i, gl'as- pri-|* mie- i gua-|i.|
w: per lei mo-|.ia. Nel mio gran|ia. ch'io per|_ lei _ mo-|ia.|
w: chi mi sfa-|ce. E ques- ti|ce. da chi|_ mi _ sfa-|ce.|
w: za pie- ta-|de. Sol io mes-|de, de sen-|* za pie- ta-|de.|
V:2
 z2 F,2 D,2 C,2 |: F,4 F,2 A,,2 | B,,2 C,2 F,,4 | F,,2 F,2 G,2 A,2 | B,4 B,2 G,2 | A,3 A, D,4 | %6
w: Nin- fe vez-|zo- se va-|ghe'a- mo- ro-|so ch'in fres- che|val- li tra|bei cris- tal-|
w: Di- te- li|ch'io per- do|il cor mi-|o poi che si|mo- re in|fie- ro'ar- do-|
w: Di- te- li'an-|co- ra che|qu tal' ho-|ra fer e'in- fi-|ni- te ho'in|te- ne- ri-|
w: Di- te- li|ch'og- gi fra|ques- ti pog-|gi non v'e pas-|to- re che|nel suo'a- mo-|
 D,2 B,,2 F,,2 G,,2 | D,4 D,2 B,,2 | C,3 C, F,,4 |1 F,,2 F,2 D,2 C,2 :|2 F,,2 F,2 G,2 E,2 |: %11
w: li d'A- mor can-|ta- te e'l|crin or- na-|te. Nin- fe vez-|te. S'in com- pa-|
w: re sen- za con-|for- to strac-|cia- to'a tor-|to. Di- te- li|to. Nel mio gran|
w: te co'l mio gran|pian- to a-|ma- ro tan-|to. Di- te- li'an-|to. E ques- ti|
w: re pie- ta non|tro- vi mer-|ce non pro-|vi. Di- te- li|vi. Sol io mes-|
 F,4 F,2 A,2 | G,3 G, C,4 | C,2 C,2 D,3 D, | G,,4 G,,2 A,,2 | B,,2 C,2 F,,4 |1 F,,2 F,2 G,2 E,2 :|2 %17
w: gni- a vien|Fil- li mi-|a di reh ho-|mai gli'as- pri|mie- i gua-|i. S'in com- pa-|
w: fo- co ra-|len- ta'un po-|co poi ch'a fol|gio- ia ch'io|per lei mo-|ia. Nel mio gran|
w: lu- mi su|l'al- ti sin-|mi sen- za'ha ver|pa- ce da|chi mi sfa-|ce. E ques- ti|
w: chi no per|mio des- ti-|no tro- no bel-|ta de sen-|za pie- ta-|de. Sol io mes-|
 F,,2 F,4 E,F, || C,8 | F,,8 |] %20
w: i, gl'as- pri miei|gua-|i.|
w: ia, ch'io per- lei|mo-|ia|
w: ce, da chi mi|sfa-|ce.|
w: de, sen- za pie-|ta-|de.|
V:3
 z2 A2 [FA]2 [EG]2 |: [Ac]4 [FA]2 [FAc]2 | [FB]2 [EG]2 [FAc]4 | [Ac]4 [GB]2 [Fc]2 | %4
 [FBd]4 [FB]2 [GB]2 | [EA]4 [^FA]4 | [^FA]2 [DB]2 [=FA]2 [Gd]2 | [^FA]4 A2 [=Fd]2 | %8
 [EGc]4 [FAc]4 |1 [FAc]2 [FAc]2 [FB]2 [Ec]2 :|2 [FA]2 [CFAc]2 [DGB]2 [CG]2 |: [CF]4 F2 E2 | %12
 [Gd]4 [E-Gc-]4 | [EGc]4 [Ad]4 | [DGB]6 [FA]2 | %15
 [FB]2 [EG]2 [FA]4"^Note: original keys: Ut 1st, Fa 4rth" |1 [CAc]4 [GB]2 [EG]2 :|2 [CAc]4 [Ac]4 || %18
 [EG]4 F2 E2 | [CFA]8 |] %20
V:4
 z2 F,2 D,2 C,2 |: F,4 F,2 A,,2 | B,,2 C,2 F,,4 | F,,2 F,2 G,2 A,2 | B,4 B,2 G,2 | A,3 A, D,4 | %6
 D,2 B,,2 F,,2 G,,2 | D,4 D,2 B,,2 | C,3 C, F,,4 |1 F,,2 F,2 D,2 C,2 :|2 F,,2 F,2 G,2 E,2 |: %11
 F,4 F,2 A,2 | G,3 G, C,4 | C,2 C,2 D,3 D, | G,,4 G,,2 A,,2 | B,,2 C,2 F,,4 |1 F,,2 F,2 G,2 E,2 :|2 %17
 F,,2 F,4 E,F, || C,8 | F,,8 |] %20

